X: 1
T:Morning Dew, The
T:Hare in the Heather, The
R:reel
H:See #81 for more variations, and a version starting on part 3.
Z:id:hn-reel-737
M:C|
K:Edor
~E3B BAFA|~E3B ADFD|~E3B BA (3FGA|1 B2dB ADFD:|2 B2dB ADFA||
|:B2eB fBeB|~B2dB ADFA|1 B2eB fBeB|dcdB ADFA:|2 (3Bcd eg fdec|dcdB ADFA||
|:BEGF EFGA|BEGB ADFA|1 BEGF EFGA|BAdB ADFA:|2 BAGF EFGA|BAdB AGFD||
